packages/react-icons/icons/mail.svg

<svg xmlns="http://www.w3.org/2000/svg" width="24" height="24"><path fill-rule="evenodd" d="M4 4h16c1.1 0 2 .9 2 2v12c0 1.1-.9 2-2 2H4c-1.1 0-2-.9-2-2V6c0-1.1.9-2 2-2Zm9.06 8.34 6.54-4.09a.85.85 0 1 0-.9-1.44L12 11 5.3 6.81a.85.85 0 1 0-.9 1.44l6.54 4.09c.65.41 1.47.41 2.12 0Z" clip-rule="evenodd"/></svg>

<svg width="24" height="24" viewBox="0 0 24 24" xmlns="http://www.w3.org/2000/svg">
<path fill-rule="evenodd" clip-rule="evenodd" d="M4 4H20C21.1 4 22 4.9 22 6V18C22 19.1 21.1 20 20 20H4C2.9 20 2 19.1 2 18V6C2 4.9 2.9 4 4 4ZM13.06 12.34L19.6 8.25C19.85 8.09 20 7.82 20 7.53C20 6.86 19.27 6.46 18.7 6.81L12 11L5.3 6.81C4.73 6.46 4 6.86 4 7.53C4 7.82 4.15 8.09 4.4 8.25L10.94 12.34C11.59 12.75 12.41 12.75 13.06 12.34Z" />
</svg>
